svg/fluentui-system-icons/ic_fluent_person_board_28_filled.svg

<svg width="28" height="28" viewBox="0 0 28 28" fill="none" xmlns="http://www.w3.org/2000/svg">
<path d="M6.75 3C4.67893 3 3 4.67893 3 6.75V18.25C3 20.3211 4.67893 22 6.75 22H18.25C20.3211 22 22 20.3211 22 18.25V6.75C22 4.67893 20.3211 3 18.25 3H6.75ZM8.875 14H16.125C17.1605 14 18 14.7695 18 15.7188C18 16.9995 17.3183 17.9788 16.2703 18.6093C15.2513 19.2223 13.9061 19.5 12.5 19.5C11.0939 19.5 9.74866 19.2223 8.72972 18.6093C7.68172 17.9788 7 16.9995 7 15.7188C7 14.7695 7.83947 14 8.875 14ZM15.5 9C15.5 10.6569 14.1569 12 12.5 12C10.8431 12 9.5 10.6569 9.5 9C9.5 7.34315 10.8431 6 12.5 6C14.1569 6 15.5 7.34315 15.5 9ZM9.24987 24.5C8.01032 24.5 6.91125 23.8986 6.22852 22.9717C6.39995 22.9904 6.57413 23 6.75055 23H18.2506L18.2611 23H18.7499C21.0971 23 22.9999 21.0972 22.9999 18.75V18.3314C23.0003 18.3043 23.0006 18.2772 23.0006 18.25V6.75002C23.0006 6.57403 22.991 6.40027 22.9723 6.22925C23.8988 6.91203 24.4999 8.01082 24.4999 9.25001V18.75C24.4999 21.9256 21.9255 24.5 18.7499 24.5H9.24987Z" fill="#212121"/>
</svg>

<svg xmlns="http://www.w3.org/2000/svg" width="28" height="28"><path d="M6.75 3A3.75 3.75 0 0 0 3 6.75v11.5A3.75 3.75 0 0 0 6.75 22h11.5A3.75 3.75 0 0 0 22 18.25V6.75A3.75 3.75 0 0 0 18.25 3H6.75Zm2.125 11h7.25C17.16 14 18 14.77 18 15.719c0 1.28-.682 2.26-1.73 2.89-1.019.613-2.364.891-3.77.891-1.406 0-2.751-.278-3.77-.89C7.682 17.978 7 17 7 15.718 7 14.769 7.84 14 8.875 14ZM15.5 9a3 3 0 1 1-6 0 3 3 0 0 1 6 0ZM9.25 24.5a3.745 3.745 0 0 1-3.021-1.528c.17.018.345.028.522.028H18.75A4.25 4.25 0 0 0 23 18.75v-12c0-.176-.009-.35-.028-.52A3.745 3.745 0 0 1 24.5 9.25v9.5a5.75 5.75 0 0 1-5.75 5.75h-9.5Z"/></svg>
